!!!SOCIAL_FUNCTION:	memorial ceremony songs
!!!PDT:	1932
!!!OTL: No_35_Buzzard_Tells_the_Animals_What_to_Do.krn
!!!REG: Southwest
!!!LANG: Non-Tone
!!!LING_GROUP: Yuman-Cochimi
**kern
*staff1
=1-
*clefF4
*k[f#c#g#]
*M2/4
4r
8r
8E\
=2
4B\
4B\
=3
8B\L
8A\J
32F#\LLL
32E\JJJ
16r
8E\
=4
4B\
4B\
=5
8B\L
8A\J
32F#\LLL
32E\JJJ
16r
8E\
=6
8A\L
8B\J
8B\L
8A\J
=7
16A\LL
16F#\
16F#\
16E\JJ
16E\
16r
8C#/
=8
8E/L
[8C#/J
8C#/L]
8C#/J
=9
4C#/
8r
8E\
=10
4E\
8Fn\L
8A\J
=11
4E\
8r
8E\
=12
4E\
8Fn\L
8A\J
=13
4E\
16C#/
16r
8C#/
=14
8E\L
[8E\J
8E\L]
8E\J
=15
4E\
4r
=16
4B\
4B\
=17
16B\LK
8.A\J
8F#\
8r
=18
4B\
4B\
=19
16B\LK
8.A\J
16F#\
16r
8F#\
=20
4B\
8.B\L
16A\Jk
=21
8B\L
8A\J
16F#\
16r
8F#\
=22
8A\L
8B\J
8B\L
8A\J
=23
16A\LL
16F#\
16F#\
16E\JJ
16E\
16r
8C#/
=24
8E/L
[8C#/J
8C#/L]
8C#/J
=25
4C#/
8r
8E\
=26
4E\
8Fn\L
8A\J
=27
4E\
8r
8C#/
=28
12E\L
12E\
12E\J
8F#\L
8A\J
=29||
*M3/4
4E\
4C#/
8r
8C#/
=30||
*M2/4
4E\
4C#/
=31
8E\L
[8E\J
8E/L]
8C#/J
=32
8E\L
8E\J
8E\L
8E\J
=33
4E\
4r
==
*-
